X:660
T:Humours of Whiskey
R:slip jig
H:
C:Chieftains
Z:
M:9/8
K:Ador
|:BcA BEE BEE|BcA BEE FED|BcA BEE BEE|FAA ABG FED:|
|:G2A BcA BcA|G2A (3Bcd d eBA|G2A BcA (3Bcd d|eAA ABG FED:|
